X:1
T:Title
%%score { ( 1 3 ) | ( 2 4 ) }
L:1/8
M:4/4
K:Bb
V:1 treble nm="Grand Piano"
V:3 treble 
V:2 bass 
V:4 bass 
V:1
 z4 z2[Q:1/4=100] [F,F]2 | [Dd]2 [DB]2 [EA]2 [Ec]2 | B4 z2 F>B | A6 z2 | d6 z2 | %5
 [Dd]2 [DB]2 [EA]2 [Ec]2 | B4 z4 | A6 z2 |[M:9/8] F6- F z z |[M:4/4] G>G G>G _A2 A>A | %10
 A2 e>d e2 F>F | G>G G>G c2 G2 |[M:11/8] c-c-c-c-c-c- c3 _d2 | %13
[M:4/4] .[Dd]>B .[DA]>B .[DG]2 .[DF]2 | .[Dd]>B .[DA]>B .[DG]2 .[DF]2 | %15
 .[Dd]>c .[DB]>A .[Dc]2 .[B,DF]>^F | G2 G2 [FG]4 | .[Ee]>c .[E=B]>d .[Ec]2 .[EG]2 | %18
 .[Ee]>c .[E=B]>d .[Ec]2 .[EG]2 | A>A G>A d2 c2 |[M:3/4] B2- [EB-]2 [DB]2 |] %21
V:2
 z8 | [B,,F,]2 [B,,^F,]2 [B,,G,]2 [B,,A,]2 | z4[K:treble] F2 D>[K:bass]D | E6 z2[K:treble] | %4
 F6[K:bass] F,2 | [B,,F,]2 [B,,F,]2 [B,,G,]2 [B,,A,]2 | z4[K:treble] F2 D>D | %7
 C2[K:bass] [C,F,]>[C,A,] [C,C]2 [C,C]>[C,B,C] |[M:9/8] [A,C]2 B,- B, C2- C[F,A,C]>[F,A,C] | %9
[M:4/4] [F,B,D]>[G,B,D] [F,B,D]>[F,B,D] [F,=B,D]2 [F,B,D]>[F,B,D] | %10
 [CE]2[K:treble] [CA]>[=B,_A] [C=A]2[K:bass] [F,A,C]>[F,A,C] | %11
 [F,B,D]>[F,B,D] [F,B,D]>[F,B,D] [F,B,E]2 [F,B,E]2 | %12
[M:11/8] [F,A,E]-[F,A,E]-[F,A,E]-[F,A,E]-[F,A,E]-[F,A,E]- [F,A,E]3 z2 | %13
[M:4/4] .[B,,F,]2 .[B,,F,]2 .[B,,F,]2 .[B,,B,]2 | .[B,,F,]2 .[B,,F,]2 .[B,,F,]2 .[B,,B,]2 | %15
 .[B,,F,]2 .[B,,F,]2 .[B,,F,]>[K:treble]B[K:bass] .B,,2 | .[E,B,E]2 .[E,B,E]2 z2 G,2 | %17
 .[C,G,]2 .[C,G,]2 .[C,G,]2 .[C,C]2 | .[C,G,]2 .[C,G,]2 .[C,G,]2 .[C,C]2 | %19
 [F,CE]>[F,CE] [F,CE]>[F,CE] [F,A,F]2 [F,E]2 |[M:3/4] F,2 G,2 F,2 |] %21
V:3
 x8 | x8 | [B,D]6 z2 | z2 C>C C2 F>e | z2 B,>B, B,2 F2 | x8 | [B,D]6 F>B | z2 C>F =E2 [EA]>G | %8
[M:9/8] z2 D- D E2- EF>F |[M:4/4] x8 | x8 | x8 |[M:11/8] x11 |[M:4/4] x8 | x8 | x8 | z4 =B,2 z2 | %17
 x8 | x8 | x8 |[M:3/4] D2 z2 z2 |] %21
V:4
 x8 | x8 | B,,6[K:treble] z2[K:bass] | z2 F,>F, F,2 z z/[K:treble] G/ | x6[K:bass] x2 | x8 | %6
 B,,6[K:treble] z2 | x2[K:bass] x6 |[M:9/8] F,6- F, z z |[M:4/4] x8 | F,6[K:treble][K:bass] z2 | %11
 x8 |[M:11/8] x11 |[M:4/4] x8 | x8 | x11/2[K:treble] x/[K:bass] x2 | z4 D,4 | x8 | x8 | x8 | %20
[M:3/4] B,,6 |] %21

